packages/foundations/assets/icons/functional/images/food/beverage_32.svg

<svg width="32" height="32" viewBox="0 0 32 32" fill="none" xmlns="http://www.w3.org/2000/svg">
<g clip-path="url(#clip0_185_1058)">
<path fill-rule="evenodd" clip-rule="evenodd" d="M15.9061 16C17.0311 16 17.9061 16.9062 17.9061 18C17.9061 18.0938 17.9061 18.2188 17.8749 18.3125L16.2186 28.3125C16.0623 29.2812 15.2186 30 14.2499 30H9.93727C8.93727 30 8.12487 29.2812 7.96857 28.3125L6.28107 18.3125C6.06227 17.0938 7.03107 16 8.24987 16H15.9061ZM15.9061 18H8.24987L8.93727 22H11.75C12.3126 22 12.75 22.4375 12.75 23C12.75 23.5312 12.3126 24 11.75 24H9.24987L9.93727 28H14.2499L15.9061 18ZM14.5937 11.0625L16.125 8.0312C16.5624 7.1875 16.75 6.25 16.75 5.3438V4C16.75 2.875 17.6562 2 18.75 2H20.75C21.8437 2 22.75 2.875 22.75 4V5.3438C22.75 6.25 22.9374 7.1875 23.375 8.0312L24.9062 11.0625C25.4687 12.1562 25.75 13.4062 25.75 14.625V28C25.75 29.0938 24.8437 30 23.75 30H19.75C19.1874 30 18.75 29.5312 18.75 29C18.75 28.4375 19.1874 28 19.75 28H23.75V14.625C23.75 13.7188 23.5312 12.7812 23.125 11.9688L21.5937 8.9062C21.0312 7.8125 20.75 6.5625 20.75 5.3438V4H18.75V5.3438C18.75 6.5625 18.4687 7.8125 17.9062 8.9062L16.375 11.9688C16.2187 12.3125 15.8437 12.5 15.5 12.5C14.9374 12.5 14.5 12.0625 14.5 11.5C14.5 11.3438 14.5312 11.2188 14.5937 11.0625Z" fill="#1A1C1F"/>
</g>
<defs>
<clipPath id="clip0_185_1058">
<rect width="32" height="32" fill="white"/>
</clipPath>
</defs>
</svg>

<svg xmlns="http://www.w3.org/2000/svg" width="32" height="32" fill="none"><g clip-path="url(#a)"><path fill="#1A1C1F" fill-rule="evenodd" d="M15.906 16c1.125 0 2 .906 2 2 0 .094 0 .219-.031.313l-1.656 10A2.01 2.01 0 0 1 14.249 30H9.938c-1 0-1.812-.719-1.968-1.687l-1.688-10C6.062 17.093 7.031 16 8.25 16zm0 2H8.25l.687 4h2.813c.563 0 1 .438 1 1 0 .531-.437 1-1 1h-2.5l.687 4h4.313zm-1.312-6.937 1.531-3.032c.437-.844.625-1.781.625-2.687V4c0-1.125.906-2 2-2h2c1.094 0 2 .875 2 2v1.344c0 .906.187 1.843.625 2.687l1.531 3.031a7.86 7.86 0 0 1 .844 3.563V28c0 1.094-.906 2-2 2h-4c-.563 0-1-.469-1-1 0-.562.437-1 1-1h4V14.625c0-.906-.219-1.844-.625-2.656l-1.531-3.063a7.86 7.86 0 0 1-.844-3.562V4h-2v1.344a7.86 7.86 0 0 1-.844 3.562l-1.531 3.063c-.156.344-.531.531-.875.531-.563 0-1-.437-1-1 0-.156.031-.281.094-.437" clip-rule="evenodd"/></g><defs><clipPath id="a"><path fill="#fff" d="M0 0h32v32H0z"/></clipPath></defs></svg>
